!!!OTL@@DE: Sch&ouml;ne Minka
!!!ONB: Russische Volksmelodie
!!!OMD: M&auml;ssig
!!!LYR: Tiedge, Christoph August
!!!LDT: 1808
!!!ONB: "Der Kosak und sein M&auml;dchen"
!!!OCL: Erk, Ludwig
!!!GCO: Deutscher Liederschatz, Band 1
**kern	**kern	**kern
*staff3	*staff2	*staff1
*Ipiano	*Ipiano	*Ivox
=1-	=1-	=1-
*clefF4	*clefG2	*clefG2
*k[]	*k[]	*k[]
*a:	*a:	*a:
*met(C)	*met(C)	*met(C)
*M4/4	*M4/4	*M4/4
*MM92	*MM92	*MM92
*^	*	*
(4AA/	1AA	4.c/ 4.a/	4.a/
4E/	.	.	.
.	.	8B/ 8g#/	8g#/
4A/	.	4.c/ 4.a/	4.a/
4E/)	.	.	.
.	.	8B/ 8g#/	8g#/
=2	=2	=2	=2
(4AA/	1AA	4c/ 4a/	4a/
4E/	.	4e/ 4cc/	4cc\
4G#/	.	4d/ 4b/	4b\
4A/)	.	4c/ 4a/	4a/
=3	=3	=3	=3
4r	2EE\	4.B/ 4.g#/	4.g#/
2E/	.	.	.
.	.	8A/ 8f#/	8f#/
.	2EE\	4.B/ 4.g#/	4.g#/
[4E/	.	.	.
.	.	8A/ 8f#/	8f#/
=4	=4	=4	=4
4E/]	2EE\	4B/ 4g#/	4g#/
2E/	.	4d/ 4b/	4b\
.	2EE\	4c/ 4a/	4a/
4E/	.	4B/ 4g#/	4g#/
=5	=5	=5	=5
(4AA/	1AA	4.c/ 4.a/	4.a/
4E/	.	.	.
.	.	8B/ 8g#/	8g#/
4A/	.	4.c/ 4.a/	4.a/
4E/)	.	.	.
.	.	8B/ 8g#/	8g#/
=6	=6	=6	=6
(4AA/	1AA	4c/ 4a/	4a/
4E/	.	4e/ 4cc/	4cc\
4G#/	.	4d/ 4b/	4b\
4A/)	.	4c/ 4a/	4a/
*v	*v	*	*
=7	=7	=7
2E\ 2B\	(8e/ 8g#/L	(8g#/L
.	8b/J)	8b/J)
.	(8b\L	(8b\L
.	8ee\J)	8ee\J)
*^	*	*
(8E/L	2E\	4.e/ 4.g#/ 4.ee/	4.ee\
8B/)	.	.	.
8B/	.	.	.
8d/J	.	8g#/	8g#/
*v	*v	*	*
=8	=8	=8
4A\	2c/ 2a/	2a/
4E\	.	.
4AA/	2r	2r
4r	.	.
=9	=9	=9
*^	*	*
(4C/	1C	4.e/ 4.cc/	4.cc\
4G/	.	.	.
.	.	8d/ 8b/	8b\
4c/	.	4.e/ 4.cc/	4.cc\
4G/)	.	.	.
.	.	8d/ 8b/	8b\
=10	=10	=10	=10
(4C/	1C	4e/ 4cc/	4cc\
4G/	.	4g\ 4ee\	4ee\
4B/	.	4f/ 4dd/	4dd\
4c/)	.	4e/ 4cc/	4cc\
=11	=11	=11	=11
4r	2GG\	4.d/ 4.b/	4.b\
2G/	.	.	.
.	.	8c/ 8a/	8a/
.	2GG\	4.d/ 4.b/	4.b\
4G/	.	.	.
.	.	8c/ 8a/	8a/
*v	*v	*	*
=12	=12	=12
(2GG/	4d/ 4b/	4b\
.	4f/ 4dd/	4dd\
2GG#/)	4e/ 4cc/	4cc\
.	4d/ 4b/	4b\
=13	=13	=13
*^	*	*
(4AA/	1AA	4.c/ 4.a/	4.a/
4E/	.	.	.
.	.	8B/ 8g#/	8g#/
4A/	.	4.c/ 4.a/	4.a/
4E/)	.	.	.
.	.	8B/ 8g#/	8g#/
*v	*v	*	*
=14	=14	=14
4AA/	4c/ 4a/	4a/
(4A\	(4e/ 4cc/	4cc\
4D\	4f/ 4b/	4b\
4D#\)	4f#/) 4a/	4a/
=15	=15	=15
2E\ 2B\	(8e/ 8g#/L	(8g#/L
.	8b/J)	8b/J)
.	(8b\L	(8b\L
.	8ee\J)	8ee\J)
*^	*	*
(8E/L	2E\	4.e/ 4.g#/ 4.ee/	4.ee\
8B/)	.	.	.
8B/	.	.	.
8d/J	.	8g#/	8g#/
*v	*v	*	*
=16	=16	=16
(8A\L	2c/ 2a/	2a/
8E\)	.	.
(8E\	.	.
8C\J	.	.
4AA/)	2r	2r
4r	.	.
==	==	==
*-	*-	*-
!!!ENC: Craig Stuart Sapp
!!!END: 2004/06/02/
!!!EFL: 090/651
